X:1
T:A Little Bit Of Rag
T:A Little Bit Of Rag
T:Composed for player piano by Paul Pratt (U.S. Music 8005B, 1916) Performed by Tom Brier 
T:https://musescore.com/user/19465036/scores/6326824 Transcribed from: Album: "Rising Star", Track 7: "A Little Bit Of Rag" 
C:Paul Pratt
%%score { ( 1 3 ) | 2 }
L:1/8
Q:1/4=82
M:2/4
K:C
V:1 treble nm="Piano" snm="Pno."
V:3 treble 
V:2 treble 
V:1
"^Not fast." x/ |!mp!!8va(! z [ae'a'] [ae'a'][ae'a'] | z/ [aa']/^d'/e'/- [ae'a']2 | %3
 z [ae'a'] [ae'a'][ae'a'] | z/ [aa']/^d'/e'/- [ae'a']2 |[Q:1/4=83] z [af'a'] [af'a'][af'a'] | %6
[Q:1/4=85]!<(! [af'a'][af'a'] z/ [af'a']/[dd']!8va)!!<)! |[Q:1/4=86] e'/^g/b/f/- f/a/=g/f/ | %8
 e2!8va(! !arpeggio![e^gbd'e']2!8va)! ||!mf! z/ [A^ce]/[Ace]/[Ace]/ [Ac^f]/[Ace]/[Acf]/[Ace]/ | %10
 [A^c^f]/[Ace][GAcea]/- [GAcea]2 | z/ [^Fce]/[Fce]/[Fce]/ [Bd]/B/[_B_d]/B/ | %12
 [Ac]/[^Fd][Ac^fa]/- [Acfa]2 | z/ [GBd]/[GBe]/[GBd]/ [_Ace]/d/[GBe]/d/ | %14
 [FBe]/[FBd][FBdg]/- [FBdg]2 |!mp! z/!<(! e/c/A/ ^d/e/d/e/!<)! |!mf! [^F^d^f]/[Geg][Ece]/- [Ece]2 | %17
[Q:1/4=87] z/ [A^ce]/[Ace]/[Ace]/ [Ac^f]/[Ace]/[Acf]/[Ace]/ | [A^c^f]/[Ace][GAcea]/- [GAcea]2 | %19
 z/ [^Fce]/[Fce]/[Fce]/ [Bd]/B/[_B_d]/B/ | [Ac]/[_Ad][GBdg]/- [GBdg]/[Gg]/[=Aa]/[Bb]/ | %21
[Q:1/4=88] [cc']/[cc']/[Bb]/[dd']/ [cc']/[cc']/[Bb]/[dd']/ | %22
 [cc']/[^D^d]/[Ee]/[Aa]/- [Aa]/[Bb]/[cc']/[=dd']/ | [ee']/^g/b/f/- f/a/=g/f/ | %24
 e2!8va(! !arpeggio![e^gbd'e']2!8va)! || z/ [A^ce]/[Ace]/[Ace]/ [Ac^f]/[Ace]/[Acf]/[Ace]/ | %26
 [A^c^f]/[Ace][GAcea]/- [GAcea]2 | z/ [^Fce]/[Fce]/[Fce]/ [Bd]/B/[_B_d]/B/ | %28
 [Ac]/[^Fd][Ac^fa]/- [Acfa]2 | z/ [GBd]/[GBe]/[GBd]/ [_Ace]/d/[GBe]/d/ | %30
 [FBe]/[FBd][FBdg]/- [FBdg]2 |!mp! z/!<(! e/c/A/ ^d/e/d/e/!<)! | %32
!mf! [^F^d^f]/[Geg][EGce]/- [EGce]2 | z/ [A^ce]/[Ace]/[Ace]/ [Ac^f]/[Ace]/[Acf]/[Ace]/ | %34
 [A^c^f]/[Ace][GAcea]/- [GAcea]2 | z/ [^Fce]/[Fce]/[Fce]/ [Bd]/B/[_B_d]/B/ | %36
 [Ac]/[_Ad][GBdg]/- [GBdg]/[Gg]/[=Aa]/[Bb]/ | [cc']/[cc']/[Bb]/[dd']/ [cc']/[cc']/[Bb]/[dd']/ | %38
 [cc']/[^D^d]/[Ee]/[Aa]/- [Aa]/[Bb]/[cc']/[=dd']/ | [ee']/[^G^g]/[Bb]/[Afa]/- [Afa]/[^A^a]/[Bdfb] | %40
 [cegc']2!8va(! [c'e'g'c'']!8va)!c/^c/ ||[K:F]!mp! d/[eb]/c/^c/ d/[ea]/=c/^c/ | %42
!>(! d/^d/e/f/ ^f/g/^g/a/!>)! | b/d'/g/a/ b/d'/g/a/ | b/d'/c'/b/ g/e/d/c/ | %45
 z/!<(!!8va(! d'/e'/f'/ [=bf']/[^gd']/[fb]/[dg]/!<)!!8va)! |!mf! z/ [^G=B]/[Ac]/[Aca]/- [Aca]2 | %47
!mp! z/!<(!!8va(! f'/e'/d'/ [f=b]/[d^g]/[=Bf]/d/!<)!!8va)! |!mf! [^d^f]/[eg][EBc]/- [EBc]c/^c/ | %49
 d/[eb]/c/^c/ d/[ea]/=c/^c/ |!>(! d/^d/e/f/ ^f/g/^g/a/!>)! | b/d'/g/a/ b/d'/g/a/ | %52
 b/d'/c'/b/ g/e/d/c/ | z/!<(!!8va(! f'/e'/d'/ [f=b]/[d^g]/[=Bf]/d/!<)!!8va)! | %54
!mf! [e^g]<[fa] [d^fbd'][dfad'] | z/ [eg=be']/[dd']/[gbd'g']/- [gbd'g']/[dd']/[eg_be'] | %56
 [fac'f']!mp! Tc2 c/^c/ || d/[eb]/c/^c/ d/[ea]/=c/^c/ |!>(! d/^d/e/f/ ^f/g/^g/a/!>)! | %59
 b/d'/g/a/ b/d'/g/a/ | b/d'/c'/b/ g/e/d/c/ | %61
 z/!<(!!8va(! d'/e'/f'/ [=bf']/[^gd']/[fb]/[dg]/!<)!!8va)! |!mf! z/ [^G=B]/[Ac]/[Aca]/- [Aca]2 | %63
!mp! z/!<(!!8va(! f'/e'/d'/ [f=b]/[d^g]/[=Bf]/d/!<)!!8va)! |!mf! [^d^f]/[eg][EBc]/- [EBc]c/^c/ | %65
 d/[eb]/c/^c/ d/[ea]/=c/^c/ |!>(! d/^d/e/f/ ^f/g/^g/a/!>)! | b/d'/g/a/ b/d'/g/a/ | %68
 b/d'/c'/b/ g/e/d/c/ | z/!<(!!8va(! f'/e'/d'/ [f=b]/[d^g]/[=Bf]/d/!<)!!8va)! | %70
!mf! [e^g]<[fa] [d^fbd'][dfad'] | z/ [eg=be']/[dd']/[gbd'g']/- [gbd'g']/[dd']/[eg_be'] | %72
 [fac'f']2 [FAcf]!mp!d/>c/ ||[Q:1/4=89] dd/>c/ dd/>c/ | [_Ed]/[Ec][EAc]/- [EAc]2 | %75
 z/ f/[Bdg]/f/ [Ada]/[Gg][F_c_df]/- | [Fcdf]/>e/[Ff]/>e/ [Ff]/>e/[Ff] | %77
 z/ [Af]/[Bg]/[=B^g]/ [ca]/[fc']/[ca]/[fc']/- | [fc']/[ee']/c'/a/ [ce]2 | %79
!mf![Q:1/4=90] E/^F/G/[D^G]/- [DG]/E/F/G/ | [CA]2 z a/>g/ | aa/>g/ aa/>g/ | %82
 [Ba]/[Bg][Bgb]/- [Bgb]2 | z/ c'/[ebd']/c'/ [ebe']/[dd'][c_e_gc']/- | %84
 [cegc']/>!8va(!c'/[b_g']/>c'/ [ag']/>c'/[_ag']/c'/!8va)! |!mp! z/ g/e/c/ a/>=b/[cc']/>a/ | %86
!<(! [dbd'][dbd']- [dbd']/[dd']/[dc'd']!<)! | z/ [=Bfa]/^c/d/ [=ca]/[_Bg][Acf]/- | %88
[Q:1/4=89] .[Acf]d/>c/ d/>c/d/>c/ || dd/>c/ dd/>c/ | [_Ed]/[Ec][EAc_e]/- [EAce]2 | %91
 z/ [Ff]/[GBdg]/[Ff]/ [Ada]/[Gg][F_A_df]/- | [FAdf]/>e/[Ff]/>e/ [Ff]/>e/[Ff] | %93
 z/ [Af]/[Bg]/[=B^g]/ [ca]/[fc']/[ca]/[fc']/- | [fc']/[ee']/c'/a/ [ce]2 | %95
!f! E/^F/G/[D^G]/- [DG]/E/F/G/ | [CA]2 z a/>g/ |!mf! aa/>g/ aa/>g/ | [Ba]/[Bg][Bgb]/- [Bgb]2 | %99
 z/ [cc']/[dgbd']/[cc']/ [ebe']/[dd'][c_e_gc']/- | %100
 [cegc']/>!8va(!c'/[b_g']/>c'/ [ag']/>c'/[_ag']/c'/!8va)! |!mp! z/ g/e/c/ a/>=b/[cc']/>a/ | %102
!<(! [dbd'][dbd']- [dbd']/[dd']/[dc'd']!<)! | z/ [=Bfa]/^c/d/ [=ca]/[_Bg][Acf]/- | %104
 [Acf] z [fac'f']2 ||[K:C]!8va(! z/ [aa']/^d'/e'/- [ae'a']2 | z/ [aa']/^d'/e'/- [ae'a']2 | %107
!<(! z/ [^g^g']/[bb']/[ff']/- [ff']/[aa']/[=g=g']/[ff']/!<)! | %108
 [ee']2 !arpeggio![e^gbd'e']2!8va)! || %109
!f![Q:1/4=90] z/ [A^ce]/[Ace]/[Ace]/ [Ac^f]/[Ace]/[Acf]/[Ace]/ | [A^c^f]/[Ace][GAcea]/- [GAcea]2 | %111
 z/ [^Fce]/[Fce]/[Fce]/ [Bd]/B/[_B_d]/B/ | [Ac]/[^Fd][Ac^fa]/- [Acfa]2 | %113
 z/ [GBd]/[GBe]/[GBd]/ [_Ace]/d/[GBe]/d/ | [FBe]/[FBd][FBdg]/- [FBdg]2 | %115
!mf! z/!<(! e/c/A/ ^d/e/d/e/!<)! |!f! [^F^d^f]/[Geg][EGce]/- [EGce]2 | %117
 z/ [A^ce]/[Ace]/[Ace]/ [Ac^f]/[Ace]/[Acf]/[Ace]/ | [A^c^f]/[Ace][GAcea]/- [GAcea]2 | %119
 z/ [^Fce]/[Fce]/[Fce]/ [Bd]/B/[_B_d]/B/ | [Ac]/[_Ad][GBdg]/- [GBdg]/[Gg]/[=Aa]/[Bb]/ | %121
 [cc']/[cc']/[Bb]/[dd']/ [cc']/[cc']/[Bb]/[dd']/ | %122
 [cc']/[^D^d]/[Ee]/[Aa]/- [Aa]/[Bb]/[cc']/[=dd']/ | [ee']/[^G^g]/[Bb]/[Afa]/- [Afa]/[^A^a]/[Bdfb] | %124
 [cegc']2!8va(! [c'e'g'c'']2!8va)! |] %125
V:2
 x/ |!ped! !arpeggio![GA^ce]4!ped-up! |!ped! [GA^ce]3 [GAce]!ped-up! | %3
!ped! !arpeggio![^FAce]4!ped-up! |!ped! [^FAce]3 [FAce]!ped-up! |!ped! !arpeggio![FGBd]4!ped-up! | %6
!ped! z/ [FGBd][FGBd]/- [FGBd][DFGB]!ped-up! | x4 | x2[K:bass]!ped! [E,,E,]>[A,,E,]-!ped-up! || %9
!ped! [A,,E,^C][G,A,CE]!ped-up!!ped! [E,,E,][G,A,CE]!ped-up! | %10
!ped! [A,,A,][G,A,^CE]!ped-up!!ped! [E,,E,]!ped-up![_E,,_E,] | %11
!ped! [D,,D,][D,^F,A,C]!ped-up!!ped! [B,,B,]!ped-up![_B,,_B,] | %12
!ped! [A,,D,A,][D,^F,A,C]!ped-up!!ped! [D,,D,][D,F,A,C]!ped-up! | %13
!ped! [G,,G,][G,B,DF]!ped-up!!ped! [_A,,_A,]!ped-up![G,,G,] | %14
!ped! [D,,D,][F,G,B,D]!ped-up!!ped! [G,,,G,,][F,G,B,D]!ped-up! | %15
!ped! [C,G,]2!ped-up!!ped! [D,A,]>C,,-!ped-up! | %16
!ped! [C,,G,,E,]!ped-up![G,CE]!ped! [G,,G,]!ped-up![G,CE]/A,,/- | %17
!ped! [A,,^C][G,A,CE]!ped-up!!ped! [E,,E,][G,A,CE]!ped-up! | %18
!ped! [A,,A,][G,A,^CE]!ped-up!!ped! [E,,E,]!ped-up![_E,,_E,] | %19
!ped! [D,,D,][D,^F,A,C]!ped-up!!ped! [B,,B,]!ped-up![_B,,_B,] | %20
!ped! [A,,A,][_A,,_A,]!ped-up!!ped! [G,,G,][G,B,DF]!ped-up! | [A,C^F]2 [_A,C=F]2 | %22
 [G,CE]>[^F,A,CE]- [F,A,CE]2 | x4 | x2!ped! [E,,B,,E,]>[A,,E,]-!ped-up! || %25
!ped! [A,,E,^C][G,A,CE]!ped-up!!ped! [E,,E,][G,A,CE]!ped-up! | %26
!ped! [^C,,^C,][G,A,^CE]!ped-up!!ped! [A,,,A,,]/[A,,A,]/[_A,,_A,]/[G,,G,]/!ped-up! | %27
!ped! [^F,,^F,][D,F,A,C]!ped-up!!ped! [B,,B,]!ped-up![_B,,_B,] | %28
!ped! [A,,D,A,][D,^F,A,C]!ped-up!!ped! [D,,A,,D,]/[^D,,^D,]/[E,,E,]/[^F,,F,]/!ped-up! | %29
!ped! [G,,G,][G,B,DF]!ped-up!!ped! [_A,,_A,]!ped-up![G,,G,] | %30
!ped! [D,,D,][F,G,B,D]!ped-up!!ped! [G,,,G,,][F,G,B,D]!ped-up! | %31
!ped! [C,G,]2!ped-up!!ped! [D,A,]>C,,-!ped-up! | %32
!ped! [C,,G,,E,][G,CE]!ped-up!!ped! [G,,G,]/[C,C]/[B,,B,]/[_B,,_B,]/!ped-up! | %33
!ped! [A,,A,][G,A,^CE]!ped-up!!ped! [E,,E,][G,A,CE]!ped-up! | %34
!ped! [A,,A,][G,A,^CE]!ped-up!!ped! [A,,A,]/[G,,G,]/[E,,E,]/[_E,,_E,]/!ped-up! | %35
!ped! [D,,D,][D,^F,A,C]!ped-up!!ped! [B,,B,]!ped-up![_B,,_B,] | %36
!ped! [A,,A,]!ped-up![_A,,_A,]!ped! [G,,G,][G,B,DF]!ped-up! | %37
!ped! [A,C^F]2!ped-up!!ped! [_A,C=F]2!ped-up! | %38
!ped! [G,CE]>!ped-up!!ped![^F,A,CE]- [F,A,CE]2!ped-up! | %39
!ped! z3/2 [D,D]/-!ped-up!!ped! [D,D]!ped-up!!ped![G,,G,]!ped-up! | %40
!ped! [C,,C,]!ped-up!.[G,,,G,,]!8vb(! [C,,,C,,]2!8vb)! || %41
[K:F]!ped! [C,,C,][G,B,CE]!ped-up!!ped! [G,,,G,,][G,B,CE]!ped-up! | %42
!ped! [C,,C,] [G,B,CE]2 [G,B,CE]!ped-up! | %43
!ped! [G,,G,][G,B,D]!ped-up!!ped! [F,,F,][F,B,D]!ped-up! | %44
!ped! [E,,E,] [G,B,CE]2 [G,B,CE]!ped-up! |!ped! [^G,=B,DF]4!ped-up! | %46
!ped! [F,,F,][A,CF]!ped-up!!ped! [C,,C,][A,CF]!ped-up! |!ped! [^G,=B,DF]4!ped-up! | %48
!ped! [C,C][G,B,CE]!ped-up!!ped! [G,,G,][G,B,CE]!ped-up! | %49
!ped! [C,,C,][G,B,CE]!ped-up!!ped! [G,,,G,,][G,B,CE]!ped-up! | %50
!ped! [C,,C,] [G,B,CE]2 [G,B,CE]!ped-up! | %51
!ped! [G,,G,][G,B,D]!ped-up!!ped! [F,,F,][F,B,D]!ped-up! | %52
!ped! [E,,E,] [G,B,CE]2 [G,B,CE]!ped-up! |!ped! [^G,=B,DF]4!ped-up! | %54
!ped! [F,,F,][A,CF]!ped-up!!ped! [D,,D,][D,^F,A,C]!ped-up! | %55
!ped! [G,,,G,,][G,=B,DF]!ped-up!!ped! [G,,G,]!ped-up![C,,C,] | [F,,F,] [C,E,B,]2 z || %57
!ped! [C,,C,][G,B,CE]!ped-up!!ped! [G,,,G,,][G,B,CE]!ped-up! | %58
!ped! [C,,C,] [G,B,CE]2 [G,B,CE]!ped-up! | %59
!ped! [G,,G,][G,B,D]!ped-up!!ped! [F,,F,][F,B,D]!ped-up! | %60
!ped! [E,,E,] [G,B,CE]2 [G,B,CE]!ped-up! |!ped! [^G,=B,DF]4!ped-up! | %62
!ped! [F,,F,][A,CF]!ped-up!!ped! [C,,C,][A,CF]!ped-up! |!ped! [^G,=B,DF]4!ped-up! | %64
!ped! [C,C][G,B,CE]!ped-up!!ped! [G,,G,][G,B,CE]!ped-up! | %65
!ped! [C,,C,][G,B,CE]!ped-up!!ped! [G,,,G,,][G,B,CE]!ped-up! | %66
!ped! [C,,C,] [G,B,CE]2 [G,B,CE]!ped-up! | %67
!ped! [G,,G,][G,B,D]!ped-up!!ped! [F,,F,][F,B,D]!ped-up! | %68
!ped! [E,,E,] [G,B,CE]2 [G,B,CE]!ped-up! |!ped! [^G,=B,DF]4!ped-up! | %70
!ped! [F,,F,][A,CF]!ped-up!!ped! [D,,D,][D,^F,A,C]!ped-up! | %71
!ped! [G,,,G,,][G,=B,DF]!ped-up!!ped! [G,,G,]!ped-up![C,,C,] | %72
!ped! [F,,F,].[C,,C,]!ped-up!!ped!!8vb(! [F,,,F,,]!ped-up!!8vb)![C,B,] || %73
 [C,A,][C,B,] [C,A,][C,B,] |!ped! [C,A,][_E,F,A,C]!ped-up!!ped! F,,[E,F,A,C]!ped-up! | %75
!ped! [B,,B,][F,B,D]!ped-up!!ped! [F,,F,][F,B,D]!ped-up! | %76
!ped! [_A,,_A,][F,A,_C_D]!ped-up!!ped! [_D,,_D,][F,A,CD]!ped-up! | %77
!ped! [F,,F,][A,CF]!ped-up!!ped! [C,,C,][A,CF]!ped-up! | %78
!ped! [A,,A,][E,A,C]!ped-up!!ped! [E,,E,][E,A,C]!ped-up! | %79
!ped! [E,,E,]/[^F,,^F,]/[G,,G,]/[^G,,^G,]/-!ped-up!!ped! [G,,G,]/[E,,E,]/[F,,F,]/[G,,G,]/!ped-up! | %80
!ped! [A,,A,][E,,E,]!ped-up!!ped! [A,,,A,,]!ped-up![G,F] | [G,E][G,F] [G,E][G,F] | %82
!ped! [G,E][G,B,CE]!ped-up!!ped! [C,,C,][G,B,CE]!ped-up! | %83
!ped! [C,C][G,B,CE]!ped-up!!ped! [C,,C,][G,B,CE]!ped-up! | %84
!ped! [_E,,_E,][E,_G,_A,C]!ped-up!!ped! [_A,,,_A,,][E,G,A,C]!ped-up! | %85
!ped! !arpeggio![C,G,E]2!ped-up!!ped! [A,CE]2!ped-up! |!ped! z4!ped-up! | %87
!ped! [D,,D,][G,=B,DF]!ped-up!!ped! [C,,C,][G,_B,CE]!ped-up! | .[F,,F,] z z [C,B,] || %89
 [C,A,][C,B,] [C,A,][C,B,] |!ped! [C,A,][F,A,C]!ped-up!!ped! [F,,F,][F,A,C]!ped-up! | %91
!ped! [B,,B,][F,B,D]!ped-up!!ped! [F,,F,][F,B,D]!ped-up! | %92
!ped! [_A,,_A,][F,A,_C_D]!ped-up!!ped! [_D,,_D,][F,A,CD]!ped-up! | %93
!ped! [F,,C,F,][A,CF]!ped-up!!ped! [C,,C,][A,CF]!ped-up! | %94
!ped! [A,,A,][E,A,C]!ped-up!!ped! [E,,E,][E,A,C]!ped-up! | %95
!ped! [E,,E,]/[^F,,^F,]/[G,,G,]/[^G,,^G,]/-!ped-up!!ped! [G,,G,]/[E,,E,]/[F,,F,]/[G,,G,]/!ped-up! | %96
!ped! [A,,A,][E,,E,]!ped-up!!ped! [A,,,A,,]!ped-up![G,F] | [G,E][G,F] [G,E][G,F] | %98
!ped! [G,E][G,B,CE]!ped-up!!ped! [C,,C,][G,B,CE]!ped-up! | %99
!ped! [C,C][G,B,CE]!ped-up!!ped! [C,,C,][G,B,CE]!ped-up! | %100
!ped! [_E,,_E,][E,_G,_A,C]!ped-up!!ped! [_A,,,_A,,][E,G,A,C]!ped-up! | %101
!ped! !arpeggio![C,G,E]2!ped-up!!ped! [A,CE]2!ped-up! |!ped! x4!ped-up! | %103
!ped! [D,,D,][G,=B,DF]!ped-up!!ped! [C,,C,][G,_B,CE]!ped-up! | %104
!ped! [F,,F,]!ped-up!.[C,,C,]!ped!!8vb(! [F,,,F,,]2!ped-up!!8vb)! || %105
[K:C][K:treble]!ped! [GA^ce]3 [GAce]!ped-up! |!ped! [^FAce]3 [FAce]!ped-up! | %107
 z/!ped! ^G/B/F/-!ped-up!!ped! F/A/=G/F/!ped-up! | %108
!ped! E2!ped-up![K:bass]!ped! [E,,E,]>[A,,E,]-!ped-up! || %109
!ped! [A,,E,^C][G,A,CE]!ped-up!!ped! [E,,E,][G,A,CE]!ped-up! | %110
!ped! [^C,,^C,][G,A,^CE]!ped-up!!ped! [A,,,A,,]/[A,,A,]/[_A,,_A,]/[G,,G,]/!ped-up! | %111
!ped! [^F,,^F,][D,F,A,C]!ped-up!!ped! [B,,B,]!ped-up![_B,,_B,] | %112
!ped! [A,,A,][D,^F,A,C]!ped-up!!ped! [D,,A,,D,]/[^D,,^D,]/[E,,E,]/[^F,,F,]/!ped-up! | %113
!ped! [G,,G,][G,B,DF]!ped-up!!ped! [_A,,_A,][G,,G,]!ped-up! | %114
!ped! [D,,D,][F,G,B,D]!ped-up!!ped! [G,,,G,,][F,G,B,D]!ped-up! | %115
!ped! [C,G,]2!ped-up!!ped! [D,A,]>C,,-!ped-up! | %116
!ped! [C,,G,,E,][G,CE]!ped-up!!ped! [G,,G,]/[C,C]/[B,,B,]/[_B,,_B,]/!ped-up! | %117
!ped! [A,,A,][G,A,^CE]!ped-up!!ped! [E,,E,][G,A,CE]!ped-up! | %118
!ped! [^C,,^C,][G,A,^CE]!ped-up!!ped! [A,,,A,,]/[A,,A,]/[_A,,_A,]/[G,,G,]/!ped-up! | %119
!ped! [^F,,^F,][D,F,A,C]!ped-up!!ped! [B,,B,][_B,,_B,]!ped-up! | %120
!ped! [A,,A,][_A,,_A,]!ped-up!!ped! [G,,G,][G,B,DF]!ped-up! | %121
!ped! [A,C^F]2!ped-up!!ped! [_A,C=F]2!ped-up! | %122
!ped! [G,CE]>!ped-up!!ped![^F,A,CE]- [F,A,CE]2!ped-up! | %123
!ped! z3/2 [D,D]/-!ped-up!!ped! [D,D]!ped-up!!ped![G,,G,]!ped-up! | %124
!ped! [C,,C,][G,,,G,,]!ped-up!!ped!!8vb(! [C,,,C,,]2!ped-up!!8vb)! |] %125
V:3
 x/ |!8va(! x4 | x4 | x4 | x4 | x4 | x4!8va)! | e/^G/B/F/- F/A/=G/F/ | E2!8va(! x2!8va)! || x4 | %10
 x4 | x4 | x4 | x4 | x4 | x/ G3/2 [^Fc]2 | x4 | x4 | x4 | x4 | x4 | x4 | x4 | %23
 e/^G/B/F/- F/A/=G/F/ | E2!8va(! x2!8va)! || x4 | x4 | x4 | x4 | x4 | x4 | x/ [EG]3/2 [^Fc]2 | x4 | %33
 x4 | x4 | x4 | x4 | x4 | x4 | x4 | x2!8va(! x!8va)! x ||[K:F] x4 | x4 | x4 | x4 | %45
 x/!8va(! x7/2!8va)! | x4 | x/!8va(! x7/2!8va)! | x4 | x4 | x4 | x4 | x4 | x/!8va(! x7/2!8va)! | %54
 x4 | x4 | x4 || x4 | x4 | x4 | x4 | x/!8va(! x7/2!8va)! | x4 | x/!8va(! x7/2!8va)! | x4 | x4 | %66
 x4 | x4 | x4 | x/!8va(! x7/2!8va)! | x4 | x4 | x3 [E^G] || [FA][E^G] [FA][EG] | x4 | x4 | x4 | %77
 x4 | x4 | x4 | x3 [=B^d] | [ce][=B^d] [ce][Bd] | x4 | x4 | x3/4!8va(! x13/4!8va)! | x4 | %86
 z/ [D^FB][DFB]/- [DFB][DFAc] | x4 | x [^GA] [FA][EG] || [FA][E^G] [FA][EG] | x4 | x4 | x4 | x4 | %94
 x4 | x4 | x3 [=B^d] | [ce][=B^d] [ce][Bd] | x4 | x4 | x3/4!8va(! x13/4!8va)! | x4 | %102
 z/ [D^FB][DFB]/- [DFB][DFAc] | x4 | x4 ||[K:C]!8va(! x4 | x4 | x4 | x4!8va)! || x4 | x4 | x4 | %112
 x4 | x4 | x4 | x/ [EG]3/2 [^Fc]2 | x4 | x4 | x4 | x4 | x4 | x4 | x4 | x4 | x2!8va(! x2!8va)! |] %125

